assets/svg/phone-o.svg

<?xml version="1.0" encoding="UTF-8"?>
<svg width="1000px" height="1000px" viewBox="0 0 1000 1000" version="1.1" xmlns="http://www.w3.org/2000/svg" xmlns:xlink="http://www.w3.org/1999/xlink">
    <!-- Generator: sketchtool 52.4 (67378) - http://www.bohemiancoding.com/sketch -->
    <title>phone-o</title>
    <desc>Created with sketchtool.</desc>
    <g id="新版图标" stroke="none" stroke-width="1" fill="none" fill-rule="evenodd">
        <g id="phone-o" fill="#323233">
            <g id="圆角-电话">
                <path d="M295.129336,166.636608 C294.407114,166.636608 293.740447,166.692164 293.018225,166.692164 C269.740447,167.692164 241.351558,185.136608 206.351558,220.136608 C66.6293359,359.914386 342.851558,639.414386 345.684891,642.247719 C348.518225,644.969941 627.851558,921.469941 767.796003,781.525497 C802.796003,746.525497 820.240447,718.192164 821.240447,694.914386 C822.07378,673.414386 809.57378,650.969941 780.518225,621.914386 C751.740447,593.081053 727.684891,579.469941 707.684891,581.303275 C689.407114,583.081053 669.907114,599.192164 649.740447,629.247719 C631.57378,659.692164 606.462669,668.969941 588.796003,671.136608 C542.796003,677.025497 488.407114,645.303275 415.518225,572.414386 C342.57378,499.414386 311.184891,444.35883 316.796003,399.192164 C318.962669,381.469941 328.184891,356.414386 359.851558,337.414386 C388.740447,318.025497 404.851558,298.525497 406.629336,280.247719 C408.518225,260.747719 394.851558,236.247719 365.962669,207.35883 C337.962669,179.35883 315.962669,166.636608 295.129336,166.636608 M671.296003,876.803275 C504.184891,876.803275 316.518225,691.636608 306.407114,681.525497 C293.351558,668.414386 -11.5373308,359.469941 167.07378,180.85883 C213.018225,134.914386 252.296003,112.747719 290.740447,111.192164 C342.129336,109.247719 379.907114,142.692164 405.240447,168.081053 C447.018225,209.803275 465.57378,248.303275 461.907114,285.636608 C458.351558,321.747719 434.740447,354.025497 389.57378,384.303275 C375.07378,393.025497 372.629336,400.414386 371.907114,405.969941 C370.129336,420.636608 378.462669,456.747719 454.796003,533.136608 C531.07378,609.35883 567.184891,617.469941 581.962669,616.025497 C587.518225,615.303275 594.907114,612.803275 602.851558,599.525497 C633.907114,553.192164 666.184891,529.525497 702.296003,526.025497 C739.129336,521.85883 778.018225,540.803275 819.796003,582.636608 C845.184891,608.025497 878.796003,647.525497 876.740447,697.192164 C875.129336,735.581053 853.018225,774.85883 807.07378,820.803275 C766.796003,861.081053 719.907114,876.803275 671.296003,876.803275" id="Fill-1"></path>
            </g>
        </g>
    </g>
</svg>

<svg width="1000" height="1000" xmlns="http://www.w3.org/2000/svg"><path d="M295.13 166.637c-.723 0-1.39.055-2.112.055-23.278 1-51.666 18.445-86.666 53.445-139.723 139.777 136.5 419.277 139.333 422.11 2.833 2.723 282.167 279.223 422.111 139.278 35-35 52.444-63.333 53.444-86.61.834-21.5-11.666-43.945-40.722-73-28.778-28.834-52.833-42.445-72.833-40.612-18.278 1.778-37.778 17.89-57.945 47.945-18.166 30.444-43.277 39.722-60.944 41.889-46 5.888-100.389-25.834-173.278-98.723-72.944-73-104.333-128.055-98.722-173.222 2.167-17.722 11.389-42.778 43.056-61.778 28.888-19.389 45-38.889 46.777-57.166 1.89-19.5-11.777-44-40.666-72.89-28-28-50-40.721-70.834-40.721m376.167 710.166c-167.111 0-354.778-185.166-364.889-195.278-13.055-13.11-317.944-322.055-139.333-500.666 45.944-45.945 85.222-68.111 123.666-69.667 51.39-1.944 89.167 31.5 114.5 56.89 41.778 41.721 60.334 80.221 56.667 117.555-3.555 36.11-27.167 68.388-72.333 98.666-14.5 8.722-16.945 16.111-17.667 21.667-1.778 14.667 6.556 50.778 82.889 127.167 76.278 76.222 112.389 84.333 127.167 82.888 5.555-.722 12.944-3.222 20.889-16.5 31.055-46.333 63.333-70 99.444-73.5 36.833-4.166 75.722 14.778 117.5 56.612 25.389 25.388 59 64.888 56.944 114.555-1.61 38.39-23.722 77.667-69.666 123.611-40.278 40.278-87.167 56-135.778 56" fill="#323233" fill-rule="evenodd"/></svg>
